X:456
T:Royal Quick Step. RH.457
T:Boys & Girls…aka. RH.457
R:jig
S:Rev.R.Harrison’s MS,c1815,Cumbria
N:see #421. SW. Was marked R:quickstep. PJH.
O:England
A:Temple Sowerby,Cumbria
Z:vmp.Simon Wilson. Review PJH, 2008.
M:6/8
L:1/8
Q:3/8=110
K:G
B/c/|d2g B2c|d2B G2G|A2B cBA|d2B G2B/c/|!
d2g B2c|d2B G2G|A2B cBA|G3- G2:|!
|:d|gag fef|gfe def|gag fef|(g2g3)d|!
g2g fef|(gfe) (def)|(gag) (fef)|g3- g2|]

